X:118
T: BLEIBT BEISAMMEN DENN ES DAUERT NET MEHR LANGE
N: E1179
O: Europa, Mitteleuropa, Deutschland, Hessen, Darmstadt, Messel
R: Trink -, Zech - Lied, Scherz
M: 2/4
L: 1/8
K: D
F,G, | A,A,A,A, | A,A,
DD | B,B,B,B, | B,B,
EE | C2A,A, | A,2
B,C | DDDD | DD

@@@ Tune index: 4802
